src/assets/svg/icons/fa/nuevos/classic/light/stopwatch classic light.svg

<svg xmlns="http://www.w3.org/2000/svg" viewBox="0 0 448 512"><!--! Font Awesome Pro 6.4.0 by @fontawesome - https://fontawesome.com License - https://fontawesome.com/license (Commercial License) Copyright 2023 Fonticons, Inc. --><path d="M128 16c0-8.8 7.2-16 16-16H304c8.8 0 16 7.2 16 16s-7.2 16-16 16H240V96.6c49.4 3.8 94 24.8 127.7 57l37-37c6.2-6.2 16.4-6.2 22.6 0s6.2 16.4 0 22.6l-38.2 38.2C416 212.6 432 256.4 432 304c0 114.9-93.1 208-208 208S16 418.9 16 304c0-109.5 84.6-199.2 192-207.4V32H144c-8.8 0-16-7.2-16-16zM48 304a176 176 0 1 0 352 0A176 176 0 1 0 48 304zm192-96V320c0 8.8-7.2 16-16 16s-16-7.2-16-16V208c0-8.8 7.2-16 16-16s16 7.2 16 16z"/></svg>

<svg xmlns="http://www.w3.org/2000/svg" viewBox="0 0 448 512"><path d="M240 320C240 328.8 232.8 336 223.1 336C215.2 336 207.1 328.8 207.1 320V208C207.1 199.2 215.2 192 223.1 192C232.8 192 240 199.2 240 208V320zM127.1 16C127.1 7.164 135.2 0 143.1 0H304C312.8 0 320 7.164 320 16C320 24.84 312.8 32 304 32H240V96.61C289.4 100.4 333.1 121.4 367.7 153.6L404.7 116.7C410.9 110.4 421.1 110.4 427.3 116.7C433.6 122.9 433.6 133.1 427.3 139.3L389.1 177.5C416 212.6 432 256.4 432 304C432 418.9 338.9 512 224 512C109.1 512 16 418.9 16 304C16 194.5 100.6 104.8 208 96.61V32H144C135.2 32 128 24.84 128 16H127.1zM223.1 480C321.2 480 400 401.2 400 304C400 206.8 321.2 128 223.1 128C126.8 128 47.1 206.8 47.1 304C47.1 401.2 126.8 480 223.1 480z"/></svg>
